X:32
T:WISP OF THISTLE/Lady Catherine Stewart's Strathspey #4
M:4/4
L:1/8
S:John Chamber's Dance sets
R:Strathspey
O:Niel Gow?
B:Caledonian Companion, p.102.
Z: Chambers <jc:trillian.mit.edu>
Z:
K:EDor
e|\
| "Em"B<E B>A "Bm"B>A F>A | "Em"B<E E>F "D"D>E F<A |"Em"B<E B>A "Bm"B>A F>A | "G"Bc/d/ "Bm/F#" B/A/G/F/ "Em"E3 e|
 "Em"B<E B>A "Bm"B>A F>A | "Em"B<E E>F "D"D>E F<A |"Em"B<E B>A "Bm"B>A F>A | "G"Bc/d/ "Bm/F#"B/A/G/F/ "Em"E3 F |
 "D"D<d d>e "G"d/c/B/c/ "D" d2 | "D"F<A A>B"G" B/A/G/F/ "D" A2 \
| "Em"Be- ef/g /"C"g/f/e/d/ "Em"e2 | "G"B/A/B/d/ "Bm/F#"B/A/G/F/ "Em"E3 F|
 "D"D<d d>e "G"d/c/B/c/ "D" d2 | "D" F<A A>B "G" B/A/G/F/ "D" A2 \
| "Em"Ee e>f "C" g>e "D" f<d | "G"B>d "Bm/F#"B/A/G/F/ "Em"E3:||
